X:98
T:Manchester Hornpipe. JGi.098
O:Tealby,Lincolnshire
M:C|
L:1/8
Q:1/2=90
S:Joshua Gibbons MS,1823,Tealby,Lincs.
R:.hornpipe
Z:VMP/R.Greig, 2009
K:D
FDFA dfaf|gefd dcBA|GBGB FAFA|EFGA GFED|
FDFA dfaf|gefd dcBA|fafd egec|d2d2d2:|
|:dffd ceec|BddB BAAF|GBGB FAFA|EFGA GFED|
FDFA dfaf|gefd dcBA|fafd egec|d2d2d2:|

